icon/pk/mac-finder.svg

<svg viewBox="0 0 48 48" fill="none" xmlns="http://www.w3.org/2000/svg" height="1em" width="1em">
  <path d="M44 38V10C44 8.89543 43.1046 8 42 8H6C4.89543 8 4 8.89543 4 10V38C4 39.1046 4.89543 40 6 40H42C43.1046 40 44 39.1046 44 38Z" fill="#2F88FF" stroke="black" stroke-width="4" stroke-linecap="round" stroke-linejoin="round"/>
  <path d="M24.9999 8C24.9999 8 19.9999 18 20.9999 25H26.9999L27.9999 40" stroke="white" stroke-width="4" stroke-linecap="round" stroke-linejoin="round"/>
  <path d="M34 40H22" stroke="black" stroke-width="4" stroke-linecap="round" stroke-linejoin="round"/>
  <path d="M30 8H18" stroke="black" stroke-width="4" stroke-linecap="round" stroke-linejoin="round"/>
  <path d="M34 16V18" stroke="white" stroke-width="4" stroke-linecap="round" stroke-linejoin="round"/>
  <path d="M14 16V18" stroke="white" stroke-width="4" stroke-linecap="round" stroke-linejoin="round"/>
  <path d="M13 29C13 29 17.1905 32 24 32C30.8095 32 35 29 35 29" stroke="white" stroke-width="4" stroke-linecap="round" stroke-linejoin="round"/>
</svg>

<svg width="48" height="48" fill="none" xmlns="http://www.w3.org/2000/svg"><path d="M44 38V10a2 2 0 0 0-2-2H6a2 2 0 0 0-2 2v28a2 2 0 0 0 2 2h36a2 2 0 0 0 2-2Z" fill="#2F88FF" stroke="#000" stroke-width="4" stroke-linecap="round" stroke-linejoin="round"/><path d="M25 8s-5 10-4 17h6l1 15" stroke="#fff" stroke-width="4" stroke-linecap="round" stroke-linejoin="round"/><path d="M34 40H22M30 8H18" stroke="#000" stroke-width="4" stroke-linecap="round" stroke-linejoin="round"/><path d="M34 16v2M14 16v2M13 29s4.19 3 11 3 11-3 11-3" stroke="#fff" stroke-width="4" stroke-linecap="round" stroke-linejoin="round"/></svg>
